X:256
M:C|
L:1/8
K:D
dc|dAFA GBAG|FAFA GBAG|FDFD GEGE|FDFD E2 dc|dAFA GBAG|
edcB A3A|BGDG BGdB|AFDF AFdA|BdcB AGFE|D2 D2 D2:|

